public/svg/jmeter.svg

<svg width="24" height="24" viewBox="0 0 24 24" fill="none" xmlns="http://www.w3.org/2000/svg">
<path d="M16.9336 3.08982C16.4938 3.26408 15.7608 3.75202 14.8916 4.45953L15.6927 5.46678C16.2529 4.93005 16.8289 4.44908 17.4048 4.03782C17.4467 4.00645 17.4729 3.98902 17.4729 3.98902C17.452 4.00645 17.4258 4.02039 17.4048 4.03782C17.2164 4.17374 16.6509 4.61289 15.7974 5.48769C16.6195 5.45981 17.8813 5.34828 18.9128 5.22978C19.2217 4.08661 18.6143 3.56382 18.6143 3.56382C18.6143 3.56382 17.8394 2.73084 16.9336 3.08982Z" fill="url(#paint0_linear)"/>
<path d="M14.2355 11.5449C14.131 11.5589 14.0264 11.5693 13.9219 11.5798C13.9742 11.5763 14.0317 11.5693 14.0839 11.5623C14.1362 11.5589 14.1885 11.5519 14.2355 11.5449Z" fill="#1B5BF7"/>
<path opacity="0.35" d="M14.2355 11.5449C14.131 11.5589 14.0264 11.5693 13.9219 11.5798C13.9742 11.5763 14.0317 11.5693 14.0839 11.5623C14.1362 11.5589 14.1885 11.5519 14.2355 11.5449Z" fill="#1B5BF7"/>
<path d="M14.5088 10.6636C14.5036 10.6636 14.5036 10.6636 14.5088 10.6636C14.5245 10.6636 14.5402 10.6601 14.5559 10.6601C14.6238 10.6532 14.6918 10.6462 14.7545 10.6357C14.6761 10.6462 14.5924 10.6532 14.5088 10.6636Z" fill="#1B5BF7"/>
<path opacity="0.35" d="M14.5088 10.6636C14.5036 10.6636 14.5036 10.6636 14.5088 10.6636C14.5245 10.6636 14.5402 10.6601 14.5559 10.6601C14.6238 10.6532 14.6918 10.6462 14.7545 10.6357C14.6761 10.6462 14.5924 10.6532 14.5088 10.6636Z" fill="#1B5BF7"/>
<path d="M13.3242 8.06673C13.5703 7.76351 13.8164 7.46727 14.0624 7.17799C14.319 6.87825 14.5808 6.58898 14.8478 6.30667C14.8635 6.28924 14.8793 6.27182 14.895 6.25788C15.1568 5.98254 15.4186 5.71766 15.6856 5.46323L14.8845 4.45947C14.8269 4.50827 14.7641 4.55706 14.7012 4.60934C14.4708 4.80103 14.23 5.00666 13.9839 5.22623C13.7064 5.47369 13.4237 5.73508 13.1305 6.01042C12.8634 6.26485 12.5912 6.53321 12.3189 6.80855C12.0885 7.04555 11.8581 7.28603 11.6277 7.53349C11.6173 7.54394 11.612 7.55091 11.6016 7.56137L12.6435 8.93108C12.8739 8.6418 13.099 8.35253 13.3242 8.06673Z" fill="url(#paint1_linear)"/>
<path d="M8.57701 15.7938C8.44087 16.0448 8.2995 16.3027 8.16337 16.5675C8.16337 16.571 8.15813 16.5745 8.15813 16.578C8.13719 16.6163 8.11624 16.6512 8.10054 16.6895C8.00629 16.8673 7.92775 17.0276 7.73926 17.3901C8.04818 17.4842 8.29427 17.7281 8.52465 18.007C8.49847 17.7177 8.32045 17.4458 7.98011 17.2367C9.49329 17.282 10.8023 17.0276 11.4725 16.2887C11.5301 16.2225 11.5877 16.1528 11.64 16.0796C11.3311 16.3375 10.9541 16.449 10.2368 16.4212H10.2316H10.2368C11.2892 16.1075 11.818 15.8043 12.284 15.3059C12.394 15.1874 12.5039 15.0584 12.6139 14.9155C11.6924 15.5464 10.6243 15.7241 9.49853 15.5882L8.65554 15.6509C8.62936 15.6997 8.60319 15.745 8.57701 15.7938Z" fill="url(#paint2_linear)"/>
<path d="M8.96903 14.536C9.15228 14.2223 9.34078 13.9051 9.52927 13.5845C9.71253 13.2778 9.90102 12.9711 10.0948 12.6609C10.2885 12.3507 10.4874 12.0405 10.6864 11.7303C10.8906 11.4132 11.1 11.0995 11.3147 10.7858C11.5242 10.4756 11.7441 10.1654 11.9587 9.85874C12.0373 9.74721 12.1158 9.63917 12.1996 9.52764C12.3357 9.33944 12.4771 9.15123 12.6185 8.96303C12.6237 8.95257 12.6342 8.94211 12.6394 8.93166L11.6079 7.56543C11.5922 7.58286 11.5765 7.60377 11.5556 7.62119C11.3147 7.88608 11.0686 8.15444 10.833 8.42978C10.5922 8.7086 10.3565 8.99091 10.1262 9.28019C9.93244 9.52415 9.74394 9.76812 9.55545 10.0156C9.5188 10.0644 9.48215 10.1167 9.4455 10.1654C9.22035 10.4756 9.01091 10.7789 8.82766 11.0681C8.61822 11.3957 8.43496 11.7094 8.27265 12.0057C8.16793 12.2008 8.06845 12.3891 7.97944 12.5703C7.90613 12.7236 7.83807 12.8805 7.77 13.0338C7.61292 13.3963 7.48202 13.7588 7.37207 14.1212L8.41925 15.4979C8.55539 15.2505 8.70199 15.003 8.84336 14.7486C8.88525 14.6789 8.92714 14.6092 8.96903 14.536Z" fill="url(#paint3_linear)"/>
<path d="M7.35617 14.1699C7.22527 14.609 7.13102 15.0482 7.0839 15.4873C7.0839 15.5013 7.07866 15.5187 7.07866 15.5326C6.75403 15.1841 5.8744 14.8425 5.87964 14.846C6.50795 15.4525 6.98441 16.0519 7.05248 16.6409C6.71738 16.6863 6.25662 16.62 5.72779 16.4911C6.2828 16.8292 6.69644 16.9233 6.85875 16.9477C6.35087 16.9686 5.82204 17.2021 5.28798 17.4704C6.06813 17.2578 6.70168 17.1742 7.15196 17.2439C6.43464 18.5927 5.71732 20.0844 5 21.6667C5.21991 21.6249 5.35081 21.5238 5.42411 21.3914C5.54977 21.1056 6.40323 19.2235 7.73315 16.7525C7.7698 16.6828 7.81169 16.6131 7.84834 16.5399C7.85881 16.519 7.86929 16.5015 7.87976 16.4806C8.02113 16.2227 8.16773 15.9578 8.31958 15.686C8.35623 15.6232 8.38764 15.564 8.42429 15.5013V15.4978L7.37711 14.1211C7.36664 14.1385 7.3614 14.1525 7.35617 14.1699Z" fill="url(#paint4_linear)"/>
<path d="M12.8126 9.04998C12.7812 9.09181 12.755 9.13014 12.7236 9.17197C12.6346 9.29744 12.5403 9.42291 12.4513 9.55186C12.3518 9.69127 12.2524 9.83417 12.1476 9.98055C12.0953 10.0537 12.0429 10.1269 11.9906 10.2036C11.8335 10.4302 11.6764 10.6637 11.5141 10.9042C11.3151 11.2004 11.1162 11.5071 10.912 11.8277C10.7182 12.131 10.5193 12.4481 10.3203 12.7723C10.1318 13.0824 9.93807 13.3996 9.74435 13.7307C9.57156 14.0235 9.39877 14.3267 9.22075 14.6369C9.21028 14.6508 9.20505 14.6682 9.19457 14.6822C9.02179 14.9889 8.84377 15.3061 8.66575 15.6302C8.66051 15.6372 8.65527 15.6441 8.65527 15.6511L9.49826 15.5884C9.48255 15.5849 9.46684 15.5849 9.4459 15.5814C10.4564 15.4977 11.7968 14.9959 12.6608 14.3755C13.0587 14.0897 13.42 13.7551 13.7551 13.3613C14.0064 13.0685 14.2368 12.7444 14.4619 12.3819C14.6556 12.0682 14.8441 11.7267 15.0222 11.3572C14.7918 11.4374 14.5247 11.4966 14.2315 11.5385C14.1792 11.5454 14.1268 11.5524 14.0745 11.5594C14.0221 11.5664 13.9697 11.5698 13.9121 11.5768C14.8546 11.3363 15.4463 10.8728 15.8756 10.3012C15.6295 10.4127 15.2264 10.5591 14.7447 10.6323C14.6818 10.6428 14.6138 10.6497 14.5457 10.6567C14.53 10.6567 14.5143 10.6602 14.4933 10.6602C14.818 10.5696 15.0955 10.4685 15.3363 10.3465C15.3887 10.3221 15.4358 10.2942 15.4829 10.2663C15.5562 10.2245 15.6243 10.1792 15.6924 10.1339C15.7342 10.1025 15.7761 10.0747 15.818 10.0433C15.9123 9.9701 16.0013 9.88993 16.0798 9.8028C16.106 9.77492 16.1322 9.75052 16.1531 9.72264C16.1845 9.68082 16.2159 9.64248 16.2421 9.60414C16.373 9.42988 16.4777 9.27304 16.5615 9.13363C16.6034 9.06392 16.6401 9.00119 16.6715 8.94194C16.6819 8.91754 16.6976 8.89663 16.7081 8.87223C16.7395 8.80601 16.771 8.74676 16.7919 8.69448C16.8233 8.61781 16.8443 8.55507 16.8547 8.50977C16.8233 8.52719 16.7867 8.54462 16.7448 8.55856C16.462 8.67009 15.9751 8.77465 15.5824 8.82344L16.3573 8.76768L15.5824 8.82344C15.5772 8.82344 15.5719 8.82344 15.5667 8.82693C15.53 8.83041 15.4882 8.8339 15.4463 8.84087C15.4515 8.83738 15.462 8.83738 15.4672 8.8339L12.8178 9.02559C12.8231 9.03953 12.8178 9.0465 12.8126 9.04998Z" fill="url(#paint5_linear)"/>
<path d="M15.7969 5.48782C15.5613 5.72831 15.3047 6.00364 15.0272 6.31035C15.0115 6.32778 14.9958 6.34172 14.9853 6.35914C14.7445 6.62751 14.4931 6.92027 14.2261 7.2444C13.9957 7.52323 13.7549 7.81947 13.5036 8.1436C13.2837 8.42243 13.0637 8.71868 12.8281 9.03235L15.4775 8.84066C16.2472 8.60366 16.5928 8.39106 16.9279 8.08087C17.0169 7.99722 17.1059 7.90661 17.1949 7.8125C17.4672 7.5302 17.7342 7.22001 17.9698 6.90982C18.2002 6.61008 18.4044 6.31383 18.5562 6.04895C18.6557 5.87817 18.7342 5.72134 18.7918 5.58193C18.839 5.45994 18.8756 5.34493 18.907 5.2334C17.8808 5.34841 16.6189 5.45994 15.7969 5.48782Z" fill="url(#paint6_linear)"/>
<path d="M14.0839 11.5659C14.0317 11.5729 13.9794 11.5764 13.9219 11.5833C13.9742 11.5764 14.0264 11.5694 14.0839 11.5659Z" fill="#1B5BF7"/>
<path opacity="0.35" d="M14.0839 11.5659C14.0317 11.5729 13.9794 11.5764 13.9219 11.5833C13.9742 11.5764 14.0264 11.5694 14.0839 11.5659Z" fill="#1B5BF7"/>
<path d="M14.0839 11.5659C14.0317 11.5729 13.9794 11.5764 13.9219 11.5833C13.9742 11.5764 14.0264 11.5694 14.0839 11.5659Z" fill="url(#paint7_linear)"/>
<path d="M14.5029 10.6632C14.5186 10.6632 14.5343 10.6597 14.5552 10.6597C14.5395 10.6597 14.5238 10.6632 14.5029 10.6632Z" fill="#1B5BF7"/>
<path opacity="0.35" d="M14.5029 10.6632C14.5186 10.6632 14.5343 10.6597 14.5552 10.6597C14.5395 10.6597 14.5238 10.6632 14.5029 10.6632Z" fill="#1B5BF7"/>
<path d="M14.5029 10.6632C14.5186 10.6632 14.5343 10.6597 14.5552 10.6597C14.5395 10.6597 14.5238 10.6632 14.5029 10.6632Z" fill="url(#paint8_linear)"/>
<rect width="24" height="24" fill="#C4C4C4" fill-opacity="0.01"/>
<defs>
<linearGradient id="paint0_linear" x1="15.5751" y1="4.58113" x2="20.9605" y2="2.33171" gradientUnits="userSpaceOnUse">
<stop stop-color="#F69923"/>
<stop offset="0.3123" stop-color="#F79A23"/>
<stop offset="0.8383" stop-color="#E97826"/>
</linearGradient>
<linearGradient id="paint1_linear" x1="2.72226" y1="22.121" x2="8.59777" y2="3.19132" gradientUnits="userSpaceOnUse">
<stop offset="0.3233" stop-color="#9E2064"/>
<stop offset="0.6302" stop-color="#C92037"/>
<stop offset="0.7514" stop-color="#CD2335"/>
<stop offset="1" stop-color="#E97826"/>
</linearGradient>
<linearGradient id="paint2_linear" x1="6.73417" y1="20.8607" x2="10.2354" y2="9.58045" gradientUnits="userSpaceOnUse">
<stop stop-color="#282662"/>
<stop offset="0.0954839" stop-color="#662E8D"/>
<stop offset="0.7882" stop-color="#9F2064"/>
<stop offset="0.9487" stop-color="#CD2032"/>
</linearGradient>
<linearGradient id="paint3_linear" x1="3.15544" y1="21.0901" x2="9.03096" y2="2.16037" gradientUnits="userSpaceOnUse">
<stop offset="0.3233" stop-color="#9E2064"/>
<stop offset="0.6302" stop-color="#C92037"/>
<stop offset="0.7514" stop-color="#CD2335"/>
<stop offset="1" stop-color="#E97826"/>
</linearGradient>
<linearGradient id="paint4_linear" x1="4.37265" y1="19.9542" x2="7.4604" y2="10.0061" gradientUnits="userSpaceOnUse">
<stop stop-color="#282662"/>
<stop offset="0.0954839" stop-color="#662E8D"/>
<stop offset="0.7882" stop-color="#9F2064"/>
<stop offset="0.9487" stop-color="#CD2032"/>
</linearGradient>
<linearGradient id="paint5_linear" x1="5.80634" y1="21.9126" x2="11.6819" y2="2.98287" gradientUnits="userSpaceOnUse">
<stop offset="0.3233" stop-color="#9E2064"/>
<stop offset="0.6302" stop-color="#C92037"/>
<stop offset="0.7514" stop-color="#CD2335"/>
<stop offset="1" stop-color="#E97826"/>
</linearGradient>
<linearGradient id="paint6_linear" x1="4.93379" y1="22.929" x2="10.8093" y2="3.99928" gradientUnits="userSpaceOnUse">
<stop offset="0.3233" stop-color="#9E2064"/>
<stop offset="0.6302" stop-color="#C92037"/>
<stop offset="0.7514" stop-color="#CD2335"/>
<stop offset="1" stop-color="#E97826"/>
</linearGradient>
<linearGradient id="paint7_linear" x1="6.6053" y1="22.1569" x2="12.4884" y2="3.2323" gradientUnits="userSpaceOnUse">
<stop offset="0.3233" stop-color="#9E2064"/>
<stop offset="0.6302" stop-color="#C92037"/>
<stop offset="0.7514" stop-color="#CD2335"/>
<stop offset="1" stop-color="#E97826"/>
</linearGradient>
<linearGradient id="paint8_linear" x1="6.516" y1="22.1277" x2="12.3981" y2="3.20459" gradientUnits="userSpaceOnUse">
<stop offset="0.3233" stop-color="#9E2064"/>
<stop offset="0.6302" stop-color="#C92037"/>
<stop offset="0.7514" stop-color="#CD2335"/>
<stop offset="1" stop-color="#E97826"/>
</linearGradient>
</defs>
</svg>

<svg xmlns="http://www.w3.org/2000/svg" width="24" height="24" fill="none" xmlns:v="https://vecta.io/nano"><path d="M16.934 3.09c-.44.174-1.173.662-2.042 1.37l.801 1.007c.56-.537 1.136-1.018 1.712-1.429l.068-.049c-.021.017-.047.031-.068.049-.188.136-.754.575-1.607 1.45l3.115-.258c.309-1.143-.299-1.666-.299-1.666s-.775-.833-1.681-.474z" fill="url(#A)"/><g fill="#1b5bf7"><use href="#J"/><use href="#J" opacity=".35"/><use href="#K"/><use href="#K" opacity=".35"/></g><path d="M13.324 8.067l.738-.889.785-.871.047-.049.791-.795-.801-1.004-.183.15-.717.617-.853.784-.812.798-.691.725-.026.028 1.042 1.37.681-.864z" fill="url(#B)"/><path d="M8.577 15.794l-.414.774-.063.122-.361.701c.309.094.555.338.785.617-.026-.289-.204-.561-.545-.77 1.513.045 2.822-.209 3.492-.948l.168-.209c-.309.258-.686.369-1.403.342h-.005.005c1.052-.314 1.581-.617 2.047-1.115l.33-.39c-.921.631-1.99.809-3.115.673l-.843.063-.079.143z" fill="url(#C)"/><path d="M8.969 14.536l.56-.951.566-.924.592-.931.628-.944.644-.927.241-.331.419-.565c.005-.01.016-.021.021-.031l-1.031-1.366c-.016.017-.031.038-.052.056l-.723.809-.707.85-.571.735-.11.15-.618.903-.555.938-.293.565-.209.463c-.157.363-.288.725-.398 1.087l1.047 1.377.424-.749.126-.213z" fill="url(#D)"/><path d="M7.356 14.17c-.131.439-.225.878-.272 1.317 0 .014-.005.031-.005.045-.325-.348-1.204-.69-1.199-.687.628.607 1.105 1.206 1.173 1.795-.335.045-.796-.021-1.325-.15.555.338.969.432 1.131.457-.508.021-1.037.254-1.571.523.78-.213 1.414-.296 1.864-.227L5 21.667c.22-.042.351-.143.424-.275l2.309-4.639.115-.213.031-.059.44-.795.105-.185v-.004l-1.047-1.377c-.01.017-.016.031-.021.049z" fill="url(#E)"/><path d="M12.813 9.05l-.089.122-.272.38-.304.429-.157.223-.477.701-.602.924-.592.945-.576.958-.524.906c-.01.014-.016.031-.026.045l-.529.948c-.005.007-.01.014-.01.021l.843-.063c-.016-.004-.031-.004-.052-.007 1.011-.084 2.351-.585 3.215-1.206a6.11 6.11 0 0 0 1.094-1.014c.251-.293.482-.617.707-.979.194-.314.382-.655.56-1.025a4.27 4.27 0 0 1-.791.181l-.157.021-.162.017c.942-.241 1.534-.704 1.963-1.276a4.43 4.43 0 0 1-1.131.331l-.199.024c-.016 0-.031.003-.052.003.325-.091.602-.192.843-.314a1.66 1.66 0 0 0 .147-.08l.209-.132.126-.091c.094-.073.183-.153.262-.241l.073-.08.089-.119.319-.471.11-.192c.01-.024.026-.045.037-.07l.084-.178c.031-.077.052-.139.063-.185-.031.017-.068.035-.11.049-.283.112-.77.216-1.162.265l.775-.056-.775.056-.136.017c.005-.003.016-.003.021-.007l-2.649.192c.005.014 0 .021-.005.024z" fill="url(#F)"/><path d="M15.797 5.488l-.77.823c-.016.017-.031.031-.042.049l-.759.885-.723.899-.676.889 2.649-.192c.77-.237 1.115-.45 1.45-.76l.267-.268a10.26 10.26 0 0 0 .775-.903c.23-.3.435-.596.586-.861.099-.171.178-.328.236-.467a3.83 3.83 0 0 0 .115-.349l-3.11.254z" fill="url(#G)"/><g fill="#1b5bf7"><use href="#L"/><use href="#L" opacity=".35"/></g><use href="#L" fill="url(#H)"/><g fill="#1b5bf7"><use href="#M"/><use href="#M" opacity=".35"/></g><use href="#M" fill="url(#I)"/><path fill="#c4c4c4" fill-opacity=".01" d="M0 0h24v24H0z"/><defs><linearGradient id="A" x1="15.575" y1="4.581" x2="20.961" y2="2.332" href="#N"><stop stop-color="#f69923"/><stop offset=".312" stop-color="#f79a23"/><stop offset=".838" stop-color="#e97826"/></linearGradient><linearGradient id="B" x1="2.722" y1="22.121" x2="8.598" y2="3.191" href="#N"><stop offset=".323" stop-color="#9e2064"/><stop offset=".63" stop-color="#c92037"/><stop offset=".751" stop-color="#cd2335"/><stop offset="1" stop-color="#e97826"/></linearGradient><linearGradient id="C" x1="6.734" y1="20.861" x2="10.235" y2="9.58" href="#N"><stop stop-color="#282662"/><stop offset=".095" stop-color="#662e8d"/><stop offset=".788" stop-color="#9f2064"/><stop offset=".949" stop-color="#cd2032"/></linearGradient><linearGradient id="D" x1="3.155" y1="21.09" x2="9.031" y2="2.16" href="#N"><stop offset=".323" stop-color="#9e2064"/><stop offset=".63" stop-color="#c92037"/><stop offset=".751" stop-color="#cd2335"/><stop offset="1" stop-color="#e97826"/></linearGradient><linearGradient id="E" x1="4.373" y1="19.954" x2="7.46" y2="10.006" href="#N"><stop stop-color="#282662"/><stop offset=".095" stop-color="#662e8d"/><stop offset=".788" stop-color="#9f2064"/><stop offset=".949" stop-color="#cd2032"/></linearGradient><linearGradient id="F" x1="5.806" y1="21.913" x2="11.682" y2="2.983" href="#N"><stop offset=".323" stop-color="#9e2064"/><stop offset=".63" stop-color="#c92037"/><stop offset=".751" stop-color="#cd2335"/><stop offset="1" stop-color="#e97826"/></linearGradient><linearGradient id="G" x1="4.934" y1="22.929" x2="10.809" y2="3.999" href="#N"><stop offset=".323" stop-color="#9e2064"/><stop offset=".63" stop-color="#c92037"/><stop offset=".751" stop-color="#cd2335"/><stop offset="1" stop-color="#e97826"/></linearGradient><linearGradient id="H" x1="6.605" y1="22.157" x2="12.488" y2="3.232" href="#N"><stop offset=".323" stop-color="#9e2064"/><stop offset=".63" stop-color="#c92037"/><stop offset=".751" stop-color="#cd2335"/><stop offset="1" stop-color="#e97826"/></linearGradient><linearGradient id="I" x1="6.516" y1="22.128" x2="12.398" y2="3.205" href="#N"><stop offset=".323" stop-color="#9e2064"/><stop offset=".63" stop-color="#c92037"/><stop offset=".751" stop-color="#cd2335"/><stop offset="1" stop-color="#e97826"/></linearGradient><path id="J" d="M14.236 11.545l-.314.035.162-.018.152-.017z"/><path id="K" d="M14.509 10.664c.016 0 .031-.004.047-.004l.199-.024-.246.028z"/><path id="L" d="M14.084 11.566l-.162.017.162-.017z"/><path id="M" d="M14.503 10.663c.016 0 .031-.003.052-.003-.016 0-.031.003-.052.003z"/><linearGradient id="N" gradientUnits="userSpaceOnUse"/></defs></svg>
